!!!COM: Louise Reichardt
!!!CNT: Deutsch
!!!TXO: Deutsch
!!!OTL: Kriegslied des Mays
!!!LYR: von Arnim
!!!OPR: 
!!!OPS: No opus information available
!!!ONM: No. 8
!!!ENC: Ben Fuhrman
!!!YOR: Louise Reichardt: Songs
!!!YOR: New York, Da Capo Press, 1981
!!!ODT: 1800 - 1826
!!NB: Only vocal melody encoded.
!!NB: First instance of melodic material only encoded.
!!created: 2/17/10 3:45PM
!!proofed and posted: 2/17/10 3:45PM
**kern	**silbe
*clef G2	*
*k[f#c#g#]	*
*M2/4	*
*MM[Etwas lebhaft]	*
{16.e	{Wenn
32e	des
=1	=1
8a	Fru2h-
8a	-lings
8b	Wa-
8b	-chen
=2	=2
4cc#	zie-
8a	-hen,
16cc#	Ler-
16dd	-che
=3	=3
8ee	frisch
8cc#	die
8dd	Trom-
8b	-mel
=4	=4
4cc#}	ru2hrt,}
8r	.
{16.e	{ach
32e	da
=5	=5
8a	mo2ch-
8a	-te
8b	ich
8b	mit
=6	=6
4cc#	zie-
8a	-hen,
16cc#	ach
16b	da
=7	=7
8b	werd
8b	ich
8b	leicht
8d#	ver-
=8	=8
*M6/8	*
!! Technically, this shift to 6/8 occurs mid-measure. I've moved it to the beginning and dotted the quarter on E in order to compensate for the proof errors. -Fuhrman
4.e}	-fu2hrt,}
{4dd	{Hand
8cc#	-geld
=9	=9
4b	Druck
8a	und
4g#	Kuss
8f#	zu
=10	=10
8f#	neh-
8e	-men
8r	.
4dd	und
8cc#	ich
=11	=11
4b	kann
8b	mich
(8ff#	gar
(eeq	|
8dd))	|
(cc#q	nicht
8b)	|
=12	=12
(4.a	scha2-
4cc#	|
8b)	|
=13	=13
4.a}	-men.}
4.r	.
==	==
*-	*-
